img/motion-icon.svg

<svg width="47" height="47" viewBox="0 0 47 47" fill="none" xmlns="http://www.w3.org/2000/svg">
<path fill-rule="evenodd" clip-rule="evenodd" d="M23.7604 46.5592C36.4063 46.5592 46.6577 36.3077 46.6577 23.6618C46.6577 11.016 36.4063 0.764526 23.7604 0.764526C11.1146 0.764526 0.863098 11.016 0.863098 23.6618C0.863098 36.3077 11.1146 46.5592 23.7604 46.5592Z" fill="#FEDC5A" fill-opacity="0.1"/>
<path d="M28.8708 29.7456H19.3137C17.9863 29.7456 17.4554 29.1793 17.4554 27.7722V26.8519C17.4554 25.4449 17.9863 24.8785 19.3137 24.8785H28.8708C30.1982 24.8785 30.7292 25.4449 30.7292 26.8519V27.7722C30.7292 29.1793 30.1982 29.7456 28.8708 29.7456Z" stroke="#FEDC5A" stroke-width="1.32738" stroke-linecap="round" stroke-linejoin="round"/>
<path d="M27.101 22.2239H21.0835C19.7561 22.2239 19.2252 21.6575 19.2252 20.2505V19.3302C19.2252 17.9232 19.7561 17.3568 21.0835 17.3568H27.101C28.4284 17.3568 28.9593 17.9232 28.9593 19.3302V20.2505C28.9593 21.6575 28.4284 22.2239 27.101 22.2239Z" stroke="#FEDC5A" stroke-width="1.32738" stroke-linecap="round" stroke-linejoin="round"/>
<path d="M24.0923 32.1794V30.0555" stroke="#FEDC5A" stroke-width="1.32738" stroke-linecap="round" stroke-linejoin="round"/>
<path d="M24.0923 24.2149V22.4451" stroke="#FEDC5A" stroke-width="1.32738" stroke-linecap="round" stroke-linejoin="round"/>
<path d="M24.0923 14.4808V16.8613" stroke="#292D32" stroke-width="1.32738" stroke-linecap="round" stroke-linejoin="round"/>
</svg>

<svg xmlns="http://www.w3.org/2000/svg" fill="none" viewBox="0 0 47 47"><path fill="#FEDC5A" fill-opacity=".1" fill-rule="evenodd" d="M23.76 46.56c12.646 0 22.898-10.252 22.898-22.898C46.658 11.016 36.406.765 23.76.765 11.115.765.863 11.016.863 23.662c0 12.646 10.252 22.897 22.897 22.897z" clip-rule="evenodd"/><path stroke="#FEDC5A" stroke-linecap="round" stroke-linejoin="round" stroke-width="1.327" d="M28.87 29.746h-9.556c-1.328 0-1.859-.567-1.859-1.974v-.92c0-1.407.531-1.974 1.859-1.974h9.557c1.327 0 1.858.567 1.858 1.974v.92c0 1.407-.53 1.974-1.858 1.974zM27.101 22.224h-6.017c-1.328 0-1.859-.567-1.859-1.974v-.92c0-1.407.531-1.973 1.858-1.973h6.018c1.327 0 1.858.566 1.858 1.973v.92c0 1.407-.53 1.974-1.858 1.974zM24.092 32.18v-2.125M24.092 24.215v-1.77"/><path stroke="#292D32" stroke-linecap="round" stroke-linejoin="round" stroke-width="1.327" d="M24.092 14.48v2.381"/></svg>
